svg/u1f43a.svg

<svg viewBox="0 0 128 128" xmlns="http://www.w3.org/2000/svg">
  <path d="M22.65,46.3c1.19,3.57-2.44,11.42-7.51,16.3S2.18,75.21,5.01,78.96c2.4,3.18,7.51-2.82,8.82-1.13 c1.31,1.69-8.26,7.7-5.44,10.89s7.56-2.12,9.03-0.56c2.32,2.47-4.34,8.44-0.4,10.32c3.94,1.88,8.71-3,13.7-4.69 c3.68-1.25,6.19-0.75,7.7,3.19s4.6,25.85,26.56,26.28c19.05,0.38,23.74-20.65,25.43-26.28c1.16-3.88,5.48-4.65,8.63-3 c2.96,1.54,5.75,5.04,9.01,2.06c2.88-2.62-2.99-6.76-0.98-8.58c2.04-1.83,5.95,5.08,9.57,1.5c2.93-2.89-4.67-7.81-2.4-10.19 c1.86-1.96,5.44,5.89,9.82,0.99c3.11-3.48-7.39-12.68-12.08-19.44c-4.69-6.76-5.95-9.46-5.95-12.61c0-3.28,9.91-16.8,11.41-23.37 c1.5-6.57,2.44-14.45,0-17.27c-2.44-2.82-11.64-1.69-20.08,1.5c-7.15,2.7-16.14,8.45-16.14,8.45s-8.82-2.82-16.14-2.82 c-7.32,0-15.58,2.82-15.58,2.82s-11.11-4.99-16.14-7.51c-6.01-3-17.25-5.66-21.19-1.9c-3.46,3.3-1.51,12.29,0.17,18.05 C14.72,33.87,21.71,43.49,22.65,46.3z" fill="#B0B0B0"/>
  <path d="M87.6,24.34c-1.12-1.26,7.09-4.74,9.9-5.68c2.82-0.94,10.18-3.33,11.31-1.08 c1.13,2.25-0.89,7.41-2.86,11.36c-1.7,3.4-4.83,8.73-6.15,8.54c-1.31-0.19-1.88-3.57-5.26-7.51S89.1,26.03,87.6,24.34z" fill="#E0E0E0"/>
  <path d="M41.61,24.72c0.48-2.54-5.19-5.44-9.13-7.13c-2.49-1.07-10.15-4.14-11.91-1.93 c-1.12,1.41,1.18,9.19,2.74,12.43c1.83,3.8,5.06,9.6,6.89,9.46c1.83-0.14,3.24-4.67,5.22-7.07C37.28,28.23,41.19,26.97,41.61,24.72z " fill="#E0E0E0"/>
  <path d="M65.12,99.47c4.65,0.11,6.9-2.39,7.88-4.93s2.39-8.17,8.02-11.12s10.28-2.11,13.23-0.7 c2.96,1.41,5.07,3.8,3.52,5.07s-7.46-0.42-10.14,3.52c-2.67,3.94-5.64,17.91-10.28,22.38c-3.94,3.8-8.17,4.5-13.66,4.22 c-5.49-0.28-11.26-2.11-14.5-7.74s-4.31-14.45-6.62-17.32c-4.08-5.07-9.29-3.1-11.4-4.08s0.14-4.36,3.24-5.77s9.28-2.41,16.05,1.27 c4.93,2.67,5.49,7.6,6.34,9.57C57.66,95.81,58.93,99.33,65.12,99.47z" fill="#E0E0E0"/>
  <path d="M90.32,61.69c-0.52,4.17-3.3,6.96-6.79,6.74c-4.19-0.26-6.07-3.85-5.77-8.04 c0.3-4.19,3.38-7.38,6.87-7.13C88.12,53.51,90.98,56.44,90.32,61.69z" fill="#2F2F2F"/>
  <path d="M51.45,59.3c0.61,4.16-1.43,7.61-5.01,8.37c-4.29,0.91-7.16-2.02-8-6.14 c-0.83-4.12,1.4-8.04,4.98-8.77S50.69,54.05,51.45,59.3z" fill="#2F2F2F"/>
  <path d="M74.18,98.06c0.09,4.18-1.41,7.56-9.57,7.46c-8.08-0.09-9.29-3.75-9.2-7.46 c0.08-3.24,4.2-5.87,9.39-5.87S74.1,94.82,74.18,98.06z" fill="#2A2A2A"/>
  <path d="M64.7,110.52c0.71,0,3.36,2.17,6.13,2.17c4.2,0,8.09-3.22,7.31-4.7c-0.77-1.48-4.22,1.62-6.62,1.62 s-4.65-0.99-4.93-3.52c-0.28-2.53-0.07-2.96-0.07-2.96l-3.52-0.14c0,0,0.42,2.18,0.42,3.1c0,1.86-3.73,3.59-5.56,3.66 c-3.45,0.14-4.22-2.46-5.91-2.67c-1.44-0.18-0.87,4.74,5.56,5.61C61.67,113.25,63.57,110.52,64.7,110.52z" fill="#2A2A2A"/>
</svg>

<svg viewBox="0 0 128 128" xmlns="http://www.w3.org/2000/svg">
  <defs/>
  <path d="M22.65,46.3 C23.84,49.87 20.21,57.72 15.14,62.6 C10.07,67.48 2.18,75.21 5.01,78.96 C7.41,82.14 12.52,76.14 13.83,77.83 C15.14,79.52 5.57,85.53 8.39,88.72 C11.21,91.91 15.95,86.6 17.42,88.16 C19.74,90.63 13.08,96.6 17.02,98.48 C20.96,100.36 25.73,95.48 30.72,93.79 C34.4,92.54 36.91,93.04 38.42,96.98 C39.93,100.92 43.02,122.83 64.98,123.26 C84.03,123.64 88.72,102.61 90.41,96.98 C91.57,93.1 95.89,92.33 99.04,93.98 C102,95.52 104.79,99.02 108.05,96.04 C110.93,93.42 105.06,89.28 107.07,87.46 C109.11,85.63 113.02,92.54 116.64,88.96 C119.57,86.07 111.97,81.15 114.24,78.77 C116.1,76.81 119.68,84.66 124.06,79.76 C127.17,76.28 116.67,67.08 111.98,60.32 C107.29,53.56 106.03,50.86 106.03,47.71 C106.03,44.43 115.94,30.91 117.44,24.34 C118.94,17.77 119.88,9.89 117.44,7.07 C115,4.25 105.8,5.38 97.36,8.57 C90.21,11.27 81.22,17.02 81.22,17.02 C81.22,17.02 72.4,14.2 65.08,14.2 C57.76,14.2 49.5,17.02 49.5,17.02 C49.5,17.02 38.39,12.03 33.36,9.51 C27.35,6.51 16.11,3.85 12.17,7.61 C8.71,10.91 10.66,19.9 12.34,25.66 C14.72,33.87 21.71,43.49 22.65,46.3 Z" fill="#B0B0B0"/>
  <path d="M87.6,24.34 C86.48,23.08 94.69,19.6 97.5,18.66 C100.32,17.72 107.68,15.33 108.81,17.58 C109.94,19.83 107.92,24.99 105.95,28.94 C104.25,32.34 101.12,37.67 99.8,37.48 C98.49,37.29 97.92,33.91 94.54,29.97 C91.16,26.03 89.1,26.03 87.6,24.34 Z" fill="#E0E0E0"/>
  <path d="M41.61,24.72 C42.09,22.18 36.42,19.28 32.48,17.59 C29.99,16.52 22.33,13.45 20.57,15.66 C19.45,17.07 21.75,24.85 23.31,28.09 C25.14,31.89 28.37,37.69 30.2,37.55 C32.03,37.41 33.44,32.88 35.42,30.48 C37.28,28.23 41.19,26.97 41.61,24.72 Z" fill="#E0E0E0"/>
  <path d="M65.12,99.47 C69.77,99.58 72.02,97.08 73,94.54 C73.98,92 75.39,86.37 81.02,83.42 C86.65,80.47 91.3,81.31 94.25,82.72 C97.21,84.13 99.32,86.52 97.77,87.79 C96.22,89.06 90.31,87.37 87.63,91.31 C84.96,95.25 81.99,109.22 77.35,113.69 C73.41,117.49 69.18,118.19 63.69,117.91 C58.2,117.63 52.43,115.8 49.19,110.17 C45.95,104.54 44.88,95.72 42.57,92.85 C38.49,87.78 33.28,89.75 31.17,88.77 C29.06,87.79 31.31,84.41 34.41,83 C37.51,81.59 43.69,80.59 50.46,84.27 C55.39,86.94 55.95,91.87 56.8,93.84 C57.66,95.81 58.93,99.33 65.12,99.47 Z" fill="#E0E0E0"/>
  <path d="M90.32,61.69 C89.8,65.86 87.02,68.65 83.53,68.43 C79.34,68.17 77.46,64.58 77.76,60.39 C78.06,56.2 81.14,53.01 84.63,53.26 C88.12,53.51 90.98,56.44 90.32,61.69 Z" fill="#2F2F2F"/>
  <path d="M51.45,59.3 C52.06,63.46 50.02,66.91 46.44,67.67 C42.15,68.58 39.28,65.65 38.44,61.53 C37.61,57.41 39.84,53.49 43.42,52.76 C47,52.03 50.69,54.05 51.45,59.3 Z" fill="#2F2F2F"/>
  <path d="M74.18,98.06 C74.27,102.24 72.77,105.62 64.61,105.52 C56.53,105.43 55.32,101.77 55.41,98.06 C55.49,94.82 59.61,92.19 64.8,92.19 C69.99,92.19 74.1,94.82 74.18,98.06 Z" fill="#2A2A2A"/>
  <path d="M64.7,110.52 C65.41,110.52 68.06,112.69 70.83,112.69 C75.03,112.69 78.92,109.47 78.14,107.99 C77.37,106.51 73.92,109.61 71.52,109.61 C69.12,109.61 66.87,108.62 66.59,106.09 C66.31,103.56 66.52,103.13 66.52,103.13 L63,102.99 C63,102.99 63.42,105.17 63.42,106.09 C63.42,107.95 59.69,109.68 57.86,109.75 C54.41,109.89 53.64,107.29 51.95,107.08 C50.51,106.9 51.08,111.82 57.51,112.69 C61.67,113.25 63.57,110.52 64.7,110.52 Z" fill="#2A2A2A"/>
</svg>
